X:1386
T:Cup of Tea, The
O:england
R:Reel
M:C|
K:EDor
BAGF EDEF|GEBE GBE=c|BAGF EDEG|(3FED AD FAD=c|\
BAGF EDEF|(3GFEBE GBE=c|BAGF GAB^c|1 dBAG FDD=c:|2 dBAG FDD2\
|:d2 (3efg fdec|dfeg fB~B2|d2 (3efg fdec|dBAG FDD2|\
d2 (3efg fdec|dfaf g2fg|afge fdec|dBAG FDD2::\
FAdA FABA|FAdA FE~E2|~F3A BABc|dBAG FDD2|\
FAdA FABA|FAde fe~e2|fedc dBAF|1 GBAG FDD2:|2 GBAG FDD=c||


